X:1
T:The Other Side
T:The Other Side
T:A. L. Stough
T:Thomas Doggett, 1897
T:Public Domain Courtesy of the Cyber Hymnal™
C:A. L. Stough
Z:Public Domain
Z:Courtesy of the Cyber Hymnal™
%%score ( 1 2 ) ( 3 4 )
L:1/8
Q:1/4=90
M:6/8
K:G
V:1 treble 
V:2 treble 
V:3 bass 
V:4 bass 
V:1
 [GB] | ([GB][FA])[DG] (GF)[DG] | (d2 A) [Fc]2 [Fc] | (cA)[GB] [Fc]2 [Dd] | [DB]4 z [DB] | %5
w: 1.~Oh!|Mas- * ter, we * are|wea- * ry With|men’s * cold hearts and|pride; How|
w: 2.~They|care * not to * come|with * us And|Thy * dis- ci- ples|be; They|
w: 3.~Bright|fields * lie there * be-|fore * us, The|wa- * ters are not|wide, And|
w: 4.~“Work|pa- * tient- ly, * My|child- * ren,” His|calm, * sweet voice re-|plied, “At|
 ([DB][^DA])[EG] ([EG][=DF])[DG] | (G2 c) [Ec]2 z | [DB]>[DG][GB] [GB]2 [FA] | [DG]3- [DG]2 z || %9
w: long, * ere Thou * wilt|take * us|Un- to the o- ther|side? *|
w: si- * lent- ly * de-|ride * us—|Oh, let us cross the|sea. *|
w: friends * and rest * and|Hea- * ven|Are on the o- ther|side. *|
w: night * you shall * pass|o- * ver,|Un- to the o- ther|side.” *|
"^Refrain" [GB][Gd][GB] [GB]2 [Gc] | [GB]3- [GB]2 z | [DG][DB][DG] [FA]2 [GB] | [FA]4 z [Ad] | %13
w: Un- to the o- ther|side! *|Un- to the o- ther|side! How|
w: Un- to the o- ther|side! *|Un- to the o- ther|side! Oh,|
w: Un- to the o- ther|side! *|Un- to the o- ther|side! And|
w: Un- to the o- ther|side! *|Un- to the o- ther|side! At|
 ([Gd][Gc])[GB] (BA)[^FG] | (G2 c) [Ec]2 z | [DB]>[DG][GB] [GB]2 [FA] | [DG]3- [DG]2 |] %17
w: long * ere Thou * wilt|take * us|Un- to the o- ther|side? *|
w: let * us cross * the|bright * sea|Un- to the o- ther|side! *|
w: friends * and rest * and|Hea- * ven|Are on the o- ther|side! *|
w: night * you shall * pass|o- * ver,|Un- to the o- ther|side. *|
V:2
 x | x3 D2 x | F3 x3 | F2 x4 | x6 | x6 | E3 x3 | x6 | x6 || x6 | x6 | x6 | x6 | x3 =F2 x | E3 x3 | %15
 x6 | x5 |] %17
V:3
 [G,D] | (DC)[G,B,] ([G,B,][A,C])[G,B,] | (A,2 D) [D,A,]2 [D,A,] | (A,C)[D,B,] [D,A,]2 [F,A,] | %4
 G,4 z G, | G,[F,B,][E,B,] (CA,)[B,,G,] | (C2 G,) [C,G,]2 z | [D,G,]>[D,B,][D,D] [D,D]2 [D,C] | %8
 [G,,B,]3- [G,,B,]2 z || [G,D][G,B,][G,D] [G,D]2 [G,E] | D3- [G,,D]2 z | %11
 [G,,B,][G,,G,][G,,B,] [D,A,]2 [D,D] | D4 z [F,C] | (B,E)[G,D] [G,D]2 [B,,D] | (C2 G,) [C,G,]2 z | %15
 [D,G,]>[D,B,][D,D] [D,D]2 [D,,D,C] | [G,,G,B,]3- [G,,G,B,]2 |] %17
V:4
 x | G,2 x4 | D,3 x3 | D,2 x4 | G,4 G, x | (G, x C,2) x2 | C,3 x3 | x6 | x6 || x6 | G,D,B,, x3 | %11
 x6 | (D,F,A, D,) x2 | G,2 x4 | C,3 x3 | x6 | x5 |] %17

